Newaita-dark/apps/48/five-or-more.svg

<svg height="48" viewBox="0 0 48 48" width="48" xmlns="http://www.w3.org/2000/svg" xmlns:xlink="http://www.w3.org/1999/xlink"><linearGradient id="a" gradientUnits="userSpaceOnUse" x1="23.81478" x2="23.81478" y1="42.0509045" y2="44.03547050005"><stop offset="0" stop-opacity=".27451"/><stop offset="1" stop-opacity="0"/></linearGradient><linearGradient id="b"><stop offset="0" stop-opacity=".313726"/><stop offset=".222222" stop-opacity=".27451"/><stop offset="1" stop-opacity="0"/></linearGradient><radialGradient id="c" cx="450.908936" cy="189.579361" gradientTransform="matrix(.00000026 -.117199 -.210958 -.00000015 78.195972 95.392999)" gradientUnits="userSpaceOnUse" r="21.166656" xlink:href="#b"/><radialGradient id="d" cx="450.908936" cy="189.579361" gradientTransform="matrix(-.00000026 .117199 .210958 .00000015 -30.56642 -11.291218)" gradientUnits="userSpaceOnUse" r="21.166656" xlink:href="#b"/><radialGradient id="e" cx="450.908936" cy="189.579361" gradientTransform="matrix(-.00000026 -.117199 .210958 -.00000015 -30.56642 95.392999)" gradientUnits="userSpaceOnUse" r="21.166656" xlink:href="#b"/><radialGradient id="f" cx="450.908936" cy="189.579361" gradientTransform="matrix(.00000026 .117199 -.210958 .00000015 78.195969 -11.291219)" gradientUnits="userSpaceOnUse" r="21.166656" xlink:href="#b"/><linearGradient id="g"><stop offset="0" stop-color="#9fa8da"/><stop offset="1" stop-color="#c5cae9"/></linearGradient><linearGradient id="h" gradientUnits="userSpaceOnUse" x1="15.87652349995" x2="15.87652349995" xlink:href="#g" y1="42.0509015" y2="4.3441580001"/><linearGradient id="i" gradientUnits="userSpaceOnUse" x1="15.87652349995" x2="15.87652349995" xlink:href="#g" y1="42.0509005" y2="4.3441570001"/><linearGradient id="j" gradientTransform="matrix(0 .093759 .093759 0 20.775444 -.617245)" gradientUnits="userSpaceOnUse" x1="455.083313" x2="52.916653" xlink:href="#g" y1="-62.833569" y2="-62.833569"/><linearGradient id="k" gradientUnits="userSpaceOnUse" x1="14.88424125" x2="14.88424125" y1="19.22839821875" y2="8.3132869999"><stop offset="0" stop-color="#26c6da"/><stop offset="1" stop-color="#4dd0e1"/></linearGradient><linearGradient id="l" gradientUnits="userSpaceOnUse" x1="33.73760525" x2="33.73760525" y1="19.22839921875" y2="8.3132879999"><stop offset="0" stop-color="#ff7043"/><stop offset="1" stop-color="#ff8a65"/></linearGradient><linearGradient id="m" gradientUnits="userSpaceOnUse" x1="14.88424325" x2="14.88424325" y1="38.08176221875" y2="27.1666509999"><stop offset="0" stop-color="#ab47bc"/><stop offset="1" stop-color="#ba68c8"/></linearGradient><path d="m8.929688 41.902344h29.769531v2.207031h-29.769531zm0 0" fill="url(#a)"/><path d="m38.699219 42.050781h3.96875v-1.984375h-3.96875zm0 0" fill="url(#c)"/><path d="m8.929688 42.050781h-3.96875v1.984375h3.96875zm0 0" fill="url(#d)"/><path d="m8.929688 42.050781h-3.96875v-1.984375h3.96875zm0 0" fill="url(#e)"/><path d="m38.699219 42.050781h3.96875v1.984375h-3.96875zm0 0" fill="url(#f)"/><path d="m6.945312 4.34375h33.738282c1.097656 0 1.984375.890625 1.984375 1.984375v33.738281c0 1.097656-.886719 1.984375-1.984375 1.984375h-33.738282c-1.09375 0-1.984374-.886719-1.984374-1.984375v-33.738281c0-1.09375.890624-1.984375 1.984374-1.984375zm0 0" fill="url(#h)"/><path d="m23.816406 4.34375v18.855469h18.851563v-16.871094c0-1.097656-.886719-1.984375-1.984375-1.984375zm0 0" fill="url(#i)"/><path d="m6.945312 4.457031c-1.097656 0-1.984374.886719-1.984374 1.984375v.25c0-1.101562.886718-1.988281 1.984374-1.984375h33.738282c1.097656-.003906 1.984375.882813 1.984375 1.984375v-.25c0-1.097656-.886719-1.984375-1.984375-1.984375zm0 0" fill="#fff" fill-opacity=".392157"/><path d="m4.960938 23.199219h18.855468v18.851562h-16.871094c-1.097656 0-1.984374-.886719-1.984374-1.984375zm0 0" fill="url(#j)"/><path d="m14.386719 8.3125c3.015625 0 5.457031 2.445312 5.457031 5.457031 0 3.015625-2.441406 5.457031-5.457031 5.457031-3.011719 0-5.457031-2.441406-5.457031-5.457031 0-3.011719 2.445312-5.457031 5.457031-5.457031zm0 0" fill="url(#k)"/><path d="m33.242188 8.3125c3.011718 0 5.457031 2.445312 5.457031 5.457031 0 3.015625-2.445313 5.457031-5.457031 5.457031-3.015626 0-5.457032-2.441406-5.457032-5.457031 0-3.011719 2.441406-5.457031 5.457032-5.457031zm0 0" fill="url(#l)"/><path d="m14.386719 27.167969c3.015625 0 5.457031 2.441406 5.457031 5.457031 0 3.011719-2.441406 5.457031-5.457031 5.457031-3.011719 0-5.457031-2.445312-5.457031-5.457031 0-3.015625 2.445312-5.457031 5.457031-5.457031zm0 0" fill="url(#m)"/><path d="m14.386719 8.3125c-3.023438 0-5.457031 2.433594-5.457031 5.457031 0 .125.003906.25.011718.375.191406-2.851562 2.546875-5.085937 5.445313-5.085937 2.898437 0 5.257812 2.234375 5.445312 5.085937.007813-.125.011719-.25.011719-.375 0-3.023437-2.433594-5.457031-5.457031-5.457031zm0 0" fill="#fff" fill-opacity=".392157"/><path d="m33.242188 8.3125c-3.023438 0-5.457032 2.433594-5.457032 5.457031 0 .125.003906.25.011719.375.191406-2.851562 2.546875-5.085937 5.445313-5.085937 2.898437 0 5.253906 2.234375 5.445312 5.085937.007812-.125.011719-.25.011719-.375 0-3.023437-2.433594-5.457031-5.457031-5.457031zm0 0" fill="#fff" fill-opacity=".392157"/><path d="m14.386719 27.167969c-3.023438 0-5.457031 2.433593-5.457031 5.457031 0 .125.003906.25.011718.371094.191406-2.847656 2.546875-5.085938 5.445313-5.085938 2.898437 0 5.257812 2.238282 5.445312 5.085938.007813-.121094.011719-.246094.011719-.371094 0-3.023438-2.433594-5.457031-5.457031-5.457031zm0 0" fill="#fff" fill-opacity=".392157"/><path d="m8.941406 14.144531c-.007812.121094-.011718.246094-.011718.371094 0 3.023437 2.433593 5.457031 5.457031 5.457031 3.023437 0 5.457031-2.433594 5.457031-5.457031 0-.125-.003906-.25-.011719-.371094-.1875 2.847657-2.546875 5.082031-5.445312 5.082031-2.898438 0-5.253907-2.234374-5.445313-5.082031zm0 0" fill-opacity=".235294"/><path d="m27.796875 14.144531c-.007813.121094-.011719.246094-.011719.371094 0 3.023437 2.433594 5.457031 5.457032 5.457031 3.023437 0 5.457031-2.433594 5.457031-5.457031 0-.125-.003907-.25-.011719-.371094-.191406 2.847657-2.546875 5.082031-5.445312 5.082031-2.898438 0-5.253907-2.234374-5.445313-5.082031zm0 0" fill-opacity=".235294"/><path d="m8.941406 32.996094c-.007812.125-.011718.246094-.011718.371094 0 3.023437 2.433593 5.457031 5.457031 5.457031 3.023437 0 5.457031-2.433594 5.457031-5.457031 0-.125-.003906-.246094-.011719-.371094-.1875 2.847656-2.546875 5.085937-5.445312 5.085937-2.898438 0-5.253907-2.238281-5.445313-5.085937zm0 0" fill-opacity=".235294"/><path d="m153.44368-126.3418c32.163595 0 58.202775 26.080843 58.202775 58.202775 0 32.163596-26.03918 58.202776-58.202775 58.202776-32.121932 0-58.202775-26.03918-58.202775-58.202776 0-32.121932 26.080843-58.202775 58.202775-58.202775zm0 0" fill="none" stroke="#212121" stroke-linecap="round" stroke-width="3" transform="matrix(.093759 0 0 .093759 0 20.158175)"/><path d="m354.549476-126.3418c32.121932 0 58.202775 26.080843 58.202775 58.202775 0 32.163596-26.080843 58.202776-58.202775 58.202776-32.163596 0-58.202776-26.03918-58.202776-58.202776 0-32.121932 26.03918-58.202775 58.202776-58.202775zm0 0" fill="none" stroke="#212121" stroke-linecap="round" stroke-width="3" transform="matrix(.093759 0 0 .093759 0 20.158175)"/><path d="m153.44368 74.763996c32.163595 0 58.202775 26.03918 58.202775 58.202775 0 32.121932-26.03918 58.202775-58.202775 58.202775-32.121932 0-58.202775-26.080843-58.202775-58.202775 0-32.163595 26.080843-58.202775 58.202775-58.202775zm0 0" fill="none" stroke="#212121" stroke-linecap="round" stroke-width="3" transform="matrix(.093759 0 0 .093759 0 20.158175)"/><path d="m4.960938 39.386719v.679687c0 1.097656.886718 1.984375 1.984374 1.984375h33.738282c1.097656 0 1.984375-.886719 1.984375-1.984375v-.679687c0 1.101562-.886719 1.984375-1.984375 1.984375h-33.738282c-1.097656 0-1.984374-.882813-1.984374-1.984375zm0 0" fill-opacity=".235294"/><g fill="none" stroke="#212121" stroke-linecap="round" stroke-width="3" transform="matrix(.093759 0 0 .093759 0 20.158175)"><path d="m52.911614 32.434704h201.105795v201.064133h-179.94115c-11.707215 0-21.164645-9.45743-21.164645-21.164645zm0 0"/><path d="m455.081542 32.434704h-201.064133v201.064133h179.899487c11.707216 0 21.164646-9.45743 21.164646-21.164645zm0 0"/><path d="m455.081542 32.434704h-201.064133v-201.105795h179.899487c11.707216 0 21.164646 9.45743 21.164646 21.164646zm0 0"/><path d="m52.911614 32.434704h201.105795v-201.105795h-179.94115c-11.707215 0-21.164645 9.45743-21.164645 21.164646zm0 0"/></g></svg>

<?xml version="1.0" encoding="UTF-8"?>
<svg xmlns="http://www.w3.org/2000/svg" xmlns:xlink="http://www.w3.org/1999/xlink" width="48px" height="48px" viewBox="0 0 48 48" version="1.1">
<defs>
<linearGradient id="linear0" gradientUnits="userSpaceOnUse" x1="254" y1="233.5" x2="254" y2="254.666672" gradientTransform="matrix(0.093759,0,0,0.093759,-0.00000572259,20.158178)">
<stop offset="0" style="stop-color:rgb(0%,0%,0%);stop-opacity:0.27451;"/>
<stop offset="1" style="stop-color:rgb(0%,0%,0%);stop-opacity:0;"/>
</linearGradient>
<radialGradient id="radial0" gradientUnits="userSpaceOnUse" cx="450.908936" cy="189.579361" fx="450.908936" fy="189.579361" r="21.166656" gradientTransform="matrix(0.000000261256,-0.117199,-0.210958,-0.000000152308,78.195972,95.392999)">
<stop offset="0" style="stop-color:rgb(0%,0%,0%);stop-opacity:0.313726;"/>
<stop offset="0.222222" style="stop-color:rgb(0%,0%,0%);stop-opacity:0.27451;"/>
<stop offset="1" style="stop-color:rgb(0%,0%,0%);stop-opacity:0;"/>
</radialGradient>
<radialGradient id="radial1" gradientUnits="userSpaceOnUse" cx="450.908936" cy="189.579361" fx="450.908936" fy="189.579361" r="21.166656" gradientTransform="matrix(-0.000000261256,0.117199,0.210958,0.000000152308,-30.56642,-11.291218)">
<stop offset="0" style="stop-color:rgb(0%,0%,0%);stop-opacity:0.313726;"/>
<stop offset="0.222222" style="stop-color:rgb(0%,0%,0%);stop-opacity:0.27451;"/>
<stop offset="1" style="stop-color:rgb(0%,0%,0%);stop-opacity:0;"/>
</radialGradient>
<radialGradient id="radial2" gradientUnits="userSpaceOnUse" cx="450.908936" cy="189.579361" fx="450.908936" fy="189.579361" r="21.166656" gradientTransform="matrix(-0.000000261256,-0.117199,0.210958,-0.000000152308,-30.56642,95.392999)">
<stop offset="0" style="stop-color:rgb(0%,0%,0%);stop-opacity:0.313726;"/>
<stop offset="0.222222" style="stop-color:rgb(0%,0%,0%);stop-opacity:0.27451;"/>
<stop offset="1" style="stop-color:rgb(0%,0%,0%);stop-opacity:0;"/>
</radialGradient>
<radialGradient id="radial3" gradientUnits="userSpaceOnUse" cx="450.908936" cy="189.579361" fx="450.908936" fy="189.579361" r="21.166656" gradientTransform="matrix(0.000000261256,0.117199,-0.210958,0.000000152308,78.195969,-11.291219)">
<stop offset="0" style="stop-color:rgb(0%,0%,0%);stop-opacity:0.313726;"/>
<stop offset="0.222222" style="stop-color:rgb(0%,0%,0%);stop-opacity:0.27451;"/>
<stop offset="1" style="stop-color:rgb(0%,0%,0%);stop-opacity:0;"/>
</radialGradient>
<linearGradient id="linear1" gradientUnits="userSpaceOnUse" x1="169.333328" y1="233.5" x2="169.333328" y2="-168.666656" gradientTransform="matrix(0.093759,0,0,0.093759,0,20.158175)">
<stop offset="0" style="stop-color:rgb(62.352943%,65.882355%,85.490197%);stop-opacity:1;"/>
<stop offset="1" style="stop-color:rgb(77.254903%,79.215688%,91.37255%);stop-opacity:1;"/>
</linearGradient>
<linearGradient id="linear2" gradientUnits="userSpaceOnUse" x1="169.333328" y1="233.5" x2="169.333328" y2="-168.666656" gradientTransform="matrix(0.093759,0,0,0.093759,0,20.158174)">
<stop offset="0" style="stop-color:rgb(62.352943%,65.882355%,85.490197%);stop-opacity:1;"/>
<stop offset="1" style="stop-color:rgb(77.254903%,79.215688%,91.37255%);stop-opacity:1;"/>
</linearGradient>
<linearGradient id="linear3" gradientUnits="userSpaceOnUse" x1="455.083313" y1="-62.833569" x2="52.916653" y2="-62.833569" gradientTransform="matrix(0,0.093759,0.093759,0,20.775444,-0.617245)">
<stop offset="0" style="stop-color:rgb(62.352943%,65.882355%,85.490197%);stop-opacity:1;"/>
<stop offset="1" style="stop-color:rgb(77.254903%,79.215688%,91.37255%);stop-opacity:1;"/>
</linearGradient>
<linearGradient id="linear4" gradientUnits="userSpaceOnUse" x1="158.75" y1="-9.916667" x2="158.75" y2="-126.333344" gradientTransform="matrix(0.093759,0,0,0.093759,0,20.158175)">
<stop offset="0" style="stop-color:rgb(14.901961%,77.64706%,85.490197%);stop-opacity:1;"/>
<stop offset="1" style="stop-color:rgb(30.19608%,81.568629%,88.235295%);stop-opacity:1;"/>
</linearGradient>
<linearGradient id="linear5" gradientUnits="userSpaceOnUse" x1="158.75" y1="-9.916667" x2="158.75" y2="-126.333344" gradientTransform="matrix(0.093759,0,0,0.093759,18.853364,20.158176)">
<stop offset="0" style="stop-color:rgb(100%,43.921569%,26.274511%);stop-opacity:1;"/>
<stop offset="1" style="stop-color:rgb(100%,54.11765%,39.607844%);stop-opacity:1;"/>
</linearGradient>
<linearGradient id="linear6" gradientUnits="userSpaceOnUse" x1="158.75" y1="-9.916667" x2="158.75" y2="-126.333344" gradientTransform="matrix(0.093759,0,0,0.093759,0.00000156265,39.011539)">
<stop offset="0" style="stop-color:rgb(67.058825%,27.843139%,73.725492%);stop-opacity:1;"/>
<stop offset="1" style="stop-color:rgb(72.941178%,40.784314%,78.431374%);stop-opacity:1;"/>
</linearGradient>
</defs>
<g id="surface1">
<path style=" stroke:none;fill-rule:nonzero;fill:url(#linear0);" d="M 8.929688 41.902344 L 38.699219 41.902344 L 38.699219 44.109375 L 8.929688 44.109375 Z M 8.929688 41.902344 "/>
<path style=" stroke:none;fill-rule:nonzero;fill:url(#radial0);" d="M 38.699219 42.050781 L 42.667969 42.050781 L 42.667969 40.066406 L 38.699219 40.066406 Z M 38.699219 42.050781 "/>
<path style=" stroke:none;fill-rule:nonzero;fill:url(#radial1);" d="M 8.929688 42.050781 L 4.960938 42.050781 L 4.960938 44.035156 L 8.929688 44.035156 Z M 8.929688 42.050781 "/>
<path style=" stroke:none;fill-rule:nonzero;fill:url(#radial2);" d="M 8.929688 42.050781 L 4.960938 42.050781 L 4.960938 40.066406 L 8.929688 40.066406 Z M 8.929688 42.050781 "/>
<path style=" stroke:none;fill-rule:nonzero;fill:url(#radial3);" d="M 38.699219 42.050781 L 42.667969 42.050781 L 42.667969 44.035156 L 38.699219 44.035156 Z M 38.699219 42.050781 "/>
<path style=" stroke:none;fill-rule:nonzero;fill:url(#linear1);" d="M 6.945312 4.34375 L 40.683594 4.34375 C 41.78125 4.34375 42.667969 5.234375 42.667969 6.328125 L 42.667969 40.066406 C 42.667969 41.164062 41.78125 42.050781 40.683594 42.050781 L 6.945312 42.050781 C 5.851562 42.050781 4.960938 41.164062 4.960938 40.066406 L 4.960938 6.328125 C 4.960938 5.234375 5.851562 4.34375 6.945312 4.34375 Z M 6.945312 4.34375 "/>
<path style=" stroke:none;fill-rule:nonzero;fill:url(#linear2);" d="M 23.816406 4.34375 L 23.816406 23.199219 L 42.667969 23.199219 L 42.667969 6.328125 C 42.667969 5.230469 41.78125 4.34375 40.683594 4.34375 Z M 23.816406 4.34375 "/>
<path style=" stroke:none;fill-rule:nonzero;fill:rgb(100%,100%,100%);fill-opacity:0.392157;" d="M 6.945312 4.457031 C 5.847656 4.457031 4.960938 5.34375 4.960938 6.441406 L 4.960938 6.691406 C 4.960938 5.589844 5.847656 4.703125 6.945312 4.707031 L 40.683594 4.707031 C 41.78125 4.703125 42.667969 5.589844 42.667969 6.691406 L 42.667969 6.441406 C 42.667969 5.34375 41.78125 4.457031 40.683594 4.457031 Z M 6.945312 4.457031 "/>
<path style=" stroke:none;fill-rule:nonzero;fill:url(#linear3);" d="M 4.960938 23.199219 L 23.816406 23.199219 L 23.816406 42.050781 L 6.945312 42.050781 C 5.847656 42.050781 4.960938 41.164062 4.960938 40.066406 Z M 4.960938 23.199219 "/>
<path style=" stroke:none;fill-rule:nonzero;fill:url(#linear4);" d="M 14.386719 8.3125 C 17.402344 8.3125 19.84375 10.757812 19.84375 13.769531 C 19.84375 16.785156 17.402344 19.226562 14.386719 19.226562 C 11.375 19.226562 8.929688 16.785156 8.929688 13.769531 C 8.929688 10.757812 11.375 8.3125 14.386719 8.3125 Z M 14.386719 8.3125 "/>
<path style=" stroke:none;fill-rule:nonzero;fill:url(#linear5);" d="M 33.242188 8.3125 C 36.253906 8.3125 38.699219 10.757812 38.699219 13.769531 C 38.699219 16.785156 36.253906 19.226562 33.242188 19.226562 C 30.226562 19.226562 27.785156 16.785156 27.785156 13.769531 C 27.785156 10.757812 30.226562 8.3125 33.242188 8.3125 Z M 33.242188 8.3125 "/>
<path style=" stroke:none;fill-rule:nonzero;fill:url(#linear6);" d="M 14.386719 27.167969 C 17.402344 27.167969 19.84375 29.609375 19.84375 32.625 C 19.84375 35.636719 17.402344 38.082031 14.386719 38.082031 C 11.375 38.082031 8.929688 35.636719 8.929688 32.625 C 8.929688 29.609375 11.375 27.167969 14.386719 27.167969 Z M 14.386719 27.167969 "/>
<path style=" stroke:none;fill-rule:nonzero;fill:rgb(100%,100%,100%);fill-opacity:0.392157;" d="M 14.386719 8.3125 C 11.363281 8.3125 8.929688 10.746094 8.929688 13.769531 C 8.929688 13.894531 8.933594 14.019531 8.941406 14.144531 C 9.132812 11.292969 11.488281 9.058594 14.386719 9.058594 C 17.285156 9.058594 19.644531 11.292969 19.832031 14.144531 C 19.839844 14.019531 19.84375 13.894531 19.84375 13.769531 C 19.84375 10.746094 17.410156 8.3125 14.386719 8.3125 Z M 14.386719 8.3125 "/>
<path style=" stroke:none;fill-rule:nonzero;fill:rgb(100%,100%,100%);fill-opacity:0.392157;" d="M 33.242188 8.3125 C 30.21875 8.3125 27.785156 10.746094 27.785156 13.769531 C 27.785156 13.894531 27.789062 14.019531 27.796875 14.144531 C 27.988281 11.292969 30.34375 9.058594 33.242188 9.058594 C 36.140625 9.058594 38.496094 11.292969 38.6875 14.144531 C 38.695312 14.019531 38.699219 13.894531 38.699219 13.769531 C 38.699219 10.746094 36.265625 8.3125 33.242188 8.3125 Z M 33.242188 8.3125 "/>
<path style=" stroke:none;fill-rule:nonzero;fill:rgb(100%,100%,100%);fill-opacity:0.392157;" d="M 14.386719 27.167969 C 11.363281 27.167969 8.929688 29.601562 8.929688 32.625 C 8.929688 32.75 8.933594 32.875 8.941406 32.996094 C 9.132812 30.148438 11.488281 27.910156 14.386719 27.910156 C 17.285156 27.910156 19.644531 30.148438 19.832031 32.996094 C 19.839844 32.875 19.84375 32.75 19.84375 32.625 C 19.84375 29.601562 17.410156 27.167969 14.386719 27.167969 Z M 14.386719 27.167969 "/>
<path style=" stroke:none;fill-rule:nonzero;fill:rgb(0%,0%,0%);fill-opacity:0.235294;" d="M 8.941406 14.144531 C 8.933594 14.265625 8.929688 14.390625 8.929688 14.515625 C 8.929688 17.539062 11.363281 19.972656 14.386719 19.972656 C 17.410156 19.972656 19.84375 17.539062 19.84375 14.515625 C 19.84375 14.390625 19.839844 14.265625 19.832031 14.144531 C 19.644531 16.992188 17.285156 19.226562 14.386719 19.226562 C 11.488281 19.226562 9.132812 16.992188 8.941406 14.144531 Z M 8.941406 14.144531 "/>
<path style=" stroke:none;fill-rule:nonzero;fill:rgb(0%,0%,0%);fill-opacity:0.235294;" d="M 27.796875 14.144531 C 27.789062 14.265625 27.785156 14.390625 27.785156 14.515625 C 27.785156 17.539062 30.21875 19.972656 33.242188 19.972656 C 36.265625 19.972656 38.699219 17.539062 38.699219 14.515625 C 38.699219 14.390625 38.695312 14.265625 38.6875 14.144531 C 38.496094 16.992188 36.140625 19.226562 33.242188 19.226562 C 30.34375 19.226562 27.988281 16.992188 27.796875 14.144531 Z M 27.796875 14.144531 "/>
<path style=" stroke:none;fill-rule:nonzero;fill:rgb(0%,0%,0%);fill-opacity:0.235294;" d="M 8.941406 32.996094 C 8.933594 33.121094 8.929688 33.242188 8.929688 33.367188 C 8.929688 36.390625 11.363281 38.824219 14.386719 38.824219 C 17.410156 38.824219 19.84375 36.390625 19.84375 33.367188 C 19.84375 33.242188 19.839844 33.121094 19.832031 32.996094 C 19.644531 35.84375 17.285156 38.082031 14.386719 38.082031 C 11.488281 38.082031 9.132812 35.84375 8.941406 32.996094 Z M 8.941406 32.996094 "/>
<path style="fill:none;stroke-width:3;stroke-linecap:round;stroke-linejoin:miter;stroke:rgb(12.941177%,12.941177%,12.941177%);stroke-opacity:1;stroke-miterlimit:4;" d="M 153.44368 -126.3418 C 185.607275 -126.3418 211.646455 -100.260957 211.646455 -68.139025 C 211.646455 -35.975429 185.607275 -9.936249 153.44368 -9.936249 C 121.321748 -9.936249 95.240905 -35.975429 95.240905 -68.139025 C 95.240905 -100.260957 121.321748 -126.3418 153.44368 -126.3418 Z M 153.44368 -126.3418 " transform="matrix(0.093759,0,0,0.093759,0,20.158175)"/>
<path style="fill:none;stroke-width:3;stroke-linecap:round;stroke-linejoin:miter;stroke:rgb(12.941177%,12.941177%,12.941177%);stroke-opacity:1;stroke-miterlimit:4;" d="M 354.549476 -126.3418 C 386.671408 -126.3418 412.752251 -100.260957 412.752251 -68.139025 C 412.752251 -35.975429 386.671408 -9.936249 354.549476 -9.936249 C 322.38588 -9.936249 296.3467 -35.975429 296.3467 -68.139025 C 296.3467 -100.260957 322.38588 -126.3418 354.549476 -126.3418 Z M 354.549476 -126.3418 " transform="matrix(0.093759,0,0,0.093759,0,20.158175)"/>
<path style="fill:none;stroke-width:3;stroke-linecap:round;stroke-linejoin:miter;stroke:rgb(12.941177%,12.941177%,12.941177%);stroke-opacity:1;stroke-miterlimit:4;" d="M 153.44368 74.763996 C 185.607275 74.763996 211.646455 100.803176 211.646455 132.966771 C 211.646455 165.088703 185.607275 191.169546 153.44368 191.169546 C 121.321748 191.169546 95.240905 165.088703 95.240905 132.966771 C 95.240905 100.803176 121.321748 74.763996 153.44368 74.763996 Z M 153.44368 74.763996 " transform="matrix(0.093759,0,0,0.093759,0,20.158175)"/>
<path style=" stroke:none;fill-rule:nonzero;fill:rgb(0%,0%,0%);fill-opacity:0.235294;" d="M 4.960938 39.386719 L 4.960938 40.066406 C 4.960938 41.164062 5.847656 42.050781 6.945312 42.050781 L 40.683594 42.050781 C 41.78125 42.050781 42.667969 41.164062 42.667969 40.066406 L 42.667969 39.386719 C 42.667969 40.488281 41.78125 41.371094 40.683594 41.371094 L 6.945312 41.371094 C 5.847656 41.371094 4.960938 40.488281 4.960938 39.386719 Z M 4.960938 39.386719 "/>
<path style="fill:none;stroke-width:3;stroke-linecap:round;stroke-linejoin:miter;stroke:rgb(12.941177%,12.941177%,12.941177%);stroke-opacity:1;stroke-miterlimit:4;" d="M 52.911614 32.434704 L 254.017409 32.434704 L 254.017409 233.498837 L 74.076259 233.498837 C 62.369044 233.498837 52.911614 224.041407 52.911614 212.334192 Z M 52.911614 32.434704 " transform="matrix(0.093759,0,0,0.093759,0,20.158175)"/>
<path style="fill:none;stroke-width:3;stroke-linecap:round;stroke-linejoin:miter;stroke:rgb(12.941177%,12.941177%,12.941177%);stroke-opacity:1;stroke-miterlimit:4;" d="M 455.081542 32.434704 L 254.017409 32.434704 L 254.017409 233.498837 L 433.916896 233.498837 C 445.624112 233.498837 455.081542 224.041407 455.081542 212.334192 Z M 455.081542 32.434704 " transform="matrix(0.093759,0,0,0.093759,0,20.158175)"/>
<path style="fill:none;stroke-width:3;stroke-linecap:round;stroke-linejoin:miter;stroke:rgb(12.941177%,12.941177%,12.941177%);stroke-opacity:1;stroke-miterlimit:4;" d="M 455.081542 32.434704 L 254.017409 32.434704 L 254.017409 -168.671091 L 433.916896 -168.671091 C 445.624112 -168.671091 455.081542 -159.213661 455.081542 -147.506445 Z M 455.081542 32.434704 " transform="matrix(0.093759,0,0,0.093759,0,20.158175)"/>
<path style="fill:none;stroke-width:3;stroke-linecap:round;stroke-linejoin:miter;stroke:rgb(12.941177%,12.941177%,12.941177%);stroke-opacity:1;stroke-miterlimit:4;" d="M 52.911614 32.434704 L 254.017409 32.434704 L 254.017409 -168.671091 L 74.076259 -168.671091 C 62.369044 -168.671091 52.911614 -159.213661 52.911614 -147.506445 Z M 52.911614 32.434704 " transform="matrix(0.093759,0,0,0.093759,0,20.158175)"/>
</g>
</svg>
